src/svg/36/podcasts_outline_36.svg

<svg fill="none" height="36" viewBox="0 0 36 36" width="36" xmlns="http://www.w3.org/2000/svg"><g fill="currentColor"><path d="m8.25 21c0 1.1046-.89543 2-2 2s-2-.8954-2-2v-5c0-.9527.66617-1.7499 1.55813-1.951.60348-6.20183 5.83157-11.049 12.19187-11.049s11.5884 4.84717 12.1919 11.049c.8919.2011 1.5581.9983 1.5581 1.951v5c0 1.1046-.8954 2-2 2s-2-.8954-2-2v-5.75c0-5.38478-4.3652-9.75-9.75-9.75s-9.75 4.36522-9.75 9.75z"/><path clip-rule="evenodd" d="m25 15.25c0-3.866-3.134-7-7-7s-7 3.134-7 7v7c0 3.4393 2.4804 6.2993 5.75 6.8887v2.7413c0 .6186.5014 1.12 1.12 1.12h.26c.6186 0 1.12-.5014 1.12-1.12v-2.7413c3.2696-.5894 5.75-3.4494 5.75-6.8887zm-11.4932-.25c.1297-2.369 2.0918-4.25 4.4932-4.25s4.3635 1.881 4.4932 4.25h-.6232c-.6904 0-1.25.5596-1.25 1.25s.5596 1.25 1.25 1.25h.63v2.5h-.63c-.6904 0-1.25.5596-1.25 1.25s.5596 1.25 1.25 1.25h.6232c-.1297 2.369-2.0918 4.25-4.4932 4.25s-4.3635-1.881-4.4932-4.25h2.2432c.6904 0 1.25-.5596 1.25-1.25s-.5596-1.25-1.25-1.25h-2.25v-2.5h2.25c.6904 0 1.25-.5596 1.25-1.25s-.5596-1.25-1.25-1.25z" fill-rule="evenodd"/></g></svg>

<svg width="36" height="36" viewBox="0 0 36 36" fill="none" xmlns="http://www.w3.org/2000/svg">
<path fill-rule="evenodd" clip-rule="evenodd" d="M8.25 19.56V21C8.25 22.1046 7.35457 23 6.25 23C5.14543 23 4.25 22.1046 4.25 21V16C4.25 15.0473 4.91617 14.2501 5.80813 14.049C6.41161 7.84717 11.6397 3 18 3C24.3603 3 29.5884 7.84717 30.1919 14.049C31.0838 14.2501 31.75 15.0473 31.75 16V21C31.75 22.1046 30.8546 23 29.75 23C28.6454 23 27.75 22.1046 27.75 21V19.56V16V15.25C27.75 9.86522 23.3848 5.5 18 5.5C12.6152 5.5 8.25 9.86522 8.25 15.25V16V19.56ZM25 15.25C25 11.384 21.866 8.25 18 8.25C14.134 8.25 11 11.384 11 15.25V22.25C11 25.6893 13.4804 28.5493 16.75 29.1387V31.88C16.75 32.4986 17.2514 33 17.87 33H18.13C18.7486 33 19.25 32.4986 19.25 31.88V29.1387C22.5196 28.5493 25 25.6893 25 22.25V15.25ZM13.5068 15C13.6365 12.631 15.5986 10.75 18 10.75C20.4014 10.75 22.3635 12.631 22.4932 15H21.87C21.1796 15 20.62 15.5596 20.62 16.25C20.62 16.9404 21.1796 17.5 21.87 17.5H22.5V20H21.87C21.1796 20 20.62 20.5596 20.62 21.25C20.62 21.9404 21.1796 22.5 21.87 22.5H22.4932C22.3635 24.869 20.4014 26.75 18 26.75C15.5986 26.75 13.6365 24.869 13.5068 22.5H15.75C16.4404 22.5 17 21.9404 17 21.25C17 20.5596 16.4404 20 15.75 20H13.5V17.5H15.75C16.4404 17.5 17 16.9404 17 16.25C17 15.5596 16.4404 15 15.75 15H13.5068Z" fill="currentColor"/>
</svg>
